X: 10281
T: MRS. GIBB'S HORNPIPE
C: Arranged by W. B. Laybourn
R: hornpipe
B: K\"ohler's Violin Repository, v.1, 1885 p.28 #1
F: http://www.archive.org/details/klersviolinrepos01edin
Z: 2011 John Chambers <jc:trillian.mit.edu>
M: C|
L: 1/8
K: C
((3uGAB) |\
cGEG CGEG | cGec cBAG | dBGB dBgf | (ag)fe (gf)ed |
cGEG | CGEG | cGec BGgf | ecaf edcB | c2[c2E2] [c2E2] :|
|: (ef) |\
g2(eg) cgeg | agfe fd^cd | f(d^cd) Ddcd | fdag fefd |
e(cBc) AcBc | FcEc Ddfd | e(caf) edcB | c2[c2E2] [c2E2] :|

%%sep 2 1 500

